assets/icons/24px/stroke/shield-24px.svg

<svg width="24" height="24" viewBox="0 0 24 24" fill="none" xmlns="http://www.w3.org/2000/svg">
<path fill-rule="evenodd" clip-rule="evenodd" d="M12 4.06152C11.8215 4.06152 11.6368 4.09444 11.0026 4.22355L8.40153 4.75304C7.61035 4.9141 7.10616 5.01853 6.738 5.14166C6.39591 5.25608 6.28685 5.35117 6.22554 5.42621C6.16423 5.50125 6.09281 5.62709 6.04894 5.98513C6.00172 6.37046 5.99997 6.88534 5.99997 7.69275V8.71738C5.99997 11.6332 6.01346 12.8506 6.4062 13.9526C6.47815 14.1545 6.55934 14.353 6.64951 14.5474C7.14166 15.6088 7.98525 16.4867 10.0287 18.5666C10.6361 19.1849 11.0303 19.5837 11.3585 19.8463C11.6691 20.0949 11.816 20.1333 11.9062 20.1418C11.9686 20.1477 12.0314 20.1477 12.0938 20.1418C12.184 20.1333 12.3309 20.0949 12.6415 19.8463C12.9697 19.5837 13.3638 19.1849 13.9712 18.5666C16.0147 16.4867 16.8583 15.6088 17.3504 14.5474C17.4406 14.353 17.5218 14.1545 17.5937 13.9526C17.9865 12.8506 18 11.6332 18 8.71738V7.69275C18 6.88534 17.9982 6.37046 17.951 5.98513C17.9071 5.62709 17.8357 5.50125 17.7744 5.42621C17.7131 5.35117 17.604 5.25608 17.2619 5.14166C16.8938 5.01853 16.3896 4.9141 15.5984 4.75304L12.9974 4.22355C12.3632 4.09444 12.1785 4.06152 12 4.06152ZM10.6852 2.24711C11.2029 2.14151 11.595 2.06152 12 2.06152C12.405 2.06152 12.7971 2.14151 13.3147 2.24711C13.3416 2.25259 13.3688 2.25813 13.3963 2.26374L16.0537 2.80471C16.7721 2.95091 17.3981 3.0783 17.8963 3.24494C18.4336 3.42464 18.9334 3.6837 19.3233 4.16089C19.7131 4.63808 19.8672 5.17952 19.9362 5.74186C20.0001 6.26332 20 6.90213 20 7.63522L20 8.71738C20 8.78455 20 8.85105 20 8.9169C20.0003 11.5713 20.0005 13.157 19.4777 14.624C19.3852 14.8836 19.2808 15.1388 19.1648 15.3888C18.5097 16.8017 17.3983 17.9327 15.5378 19.826C15.4916 19.8729 15.445 19.9203 15.3979 19.9683L15.3571 20.0098C14.8021 20.5748 14.3241 21.0613 13.8911 21.4078C13.43 21.7769 12.9183 22.073 12.2814 22.133C12.0942 22.1506 11.9058 22.1506 11.7186 22.133C11.0816 22.073 10.5699 21.7769 10.1088 21.4078C9.67581 21.0613 9.19787 20.5748 8.64282 20.0098L8.60202 19.9683C8.55494 19.9203 8.50833 19.8729 8.46218 19.8259C6.60168 17.9327 5.49024 16.8017 4.83509 15.3888C4.71916 15.1388 4.61478 14.8836 4.52226 14.624C3.99945 13.157 3.99964 11.5713 3.99995 8.9169C3.99996 8.85105 3.99997 8.78455 3.99997 8.71738V7.69275C3.99997 7.67351 3.99997 7.65433 3.99997 7.63522C3.99992 6.90213 3.99989 6.26332 4.06379 5.74186C4.1327 5.17952 4.28685 4.63808 4.67668 4.16089C5.06652 3.6837 5.56633 3.42464 6.10362 3.24494C6.60185 3.0783 7.22783 2.95091 7.9462 2.80471C7.96493 2.8009 7.98372 2.79708 8.00257 2.79324L10.6036 2.26374C10.6312 2.25813 10.6583 2.25259 10.6852 2.24711Z" fill="white"/>
</svg>

<svg width="24" height="24" fill="none" xmlns="http://www.w3.org/2000/svg"><path fill-rule="evenodd" clip-rule="evenodd" d="M12 4.062c-.178 0-.363.032-.997.162l-2.601.529c-.792.161-1.296.266-1.664.389-.342.114-.451.21-.512.284-.062.075-.133.201-.177.56-.047.384-.049.9-.049 1.707v1.024c0 2.916.013 4.134.406 5.236.072.202.153.4.244.594.492 1.062 1.335 1.94 3.379 4.02.607.618 1.001 1.017 1.33 1.28.31.248.457.286.547.295a.996.996 0 0 0 .188 0c.09-.009.237-.047.548-.296.328-.262.722-.661 1.33-1.28 2.043-2.08 2.886-2.957 3.378-4.019.09-.194.172-.393.244-.594.392-1.102.406-2.32.406-5.236V7.693c0-.808-.002-1.323-.049-1.708-.044-.358-.115-.484-.177-.559-.06-.075-.17-.17-.512-.284-.368-.123-.872-.228-1.664-.389l-2.6-.53c-.635-.129-.82-.161-.998-.161zm-1.315-1.815c.518-.105.91-.185 1.315-.185.405 0 .797.08 1.315.185l.081.017 2.658.54c.718.147 1.344.274 1.842.44.538.18 1.037.44 1.427.917.39.477.544 1.019.613 1.58C20 6.264 20 6.903 20 7.636v1.282c0 2.654 0 4.24-.522 5.707a8.97 8.97 0 0 1-.313.765c-.655 1.413-1.767 2.544-3.627 4.437l-.14.142-.04.042c-.556.565-1.034 1.051-1.467 1.398-.461.369-.973.665-1.61.725a3.006 3.006 0 0 1-.562 0c-.637-.06-1.15-.356-1.61-.725-.433-.347-.911-.833-1.466-1.398l-.041-.042-.14-.142c-1.86-1.893-2.972-3.024-3.627-4.437a9 9 0 0 1-.313-.765C4 13.157 4 11.571 4 8.917V7.693v-.058c0-.733 0-1.372.064-1.893.069-.562.223-1.104.613-1.581.39-.477.89-.736 1.427-.916.498-.167 1.124-.294 1.842-.44l.057-.012 2.6-.53.082-.016z" fill="#fff"/></svg>
